gtk/icons/scalable/actions/document-open-symbolic.svg

<svg width='16' height='16'
     xmlns:gpa='https://www.gtk.org/grappa'
     gpa:version='1'
     gpa:keywords='folder open document'
     gpa:state='0'>
  <path d='M 4 11 L 5.47399998 8.05200005 C 5.79666519 7.40714836, 6.4559269 6.99990034, 7.17700005 7 L 13.2370005 7 C 13.8192186 6.99966431, 14.3634796 7.28890514, 14.6889772 7.77163696 C 15.0144749 8.25436878, 15.0785809 8.86736965, 14.8599997 9.40699959 L 13.4099998 12.9899998 C 13.1625767 13.600914, 12.5691166 14.0005112, 11.9099998 14 L 2.79999995 14 C 1.80588734 14, 0.999999821 13.1941128, 1 12.1999998 L 1 4.26599979 C 1.00000012 3.01452255, 2.01452279 2, 3.26600003 2 L 6 2 L 8 4 L 11 4 C 12.1045694 4, 13 4.89543056, 13 6 L 13 7'
        id='path0'
        stroke-width='2'
        stroke-linecap='round'
        stroke-linejoin='round'
        stroke='rgb(0,0,0)'
        fill='none'
        class='foreground-stroke transparent-fill'/>
</svg>

<svg xmlns="http://www.w3.org/2000/svg" width="16" height="16"><path d="m4 11 1.474-2.948A1.904 1.904 148.283 0 1 7.177 7h6.06a1.75 1.75 56.022 0 1 1.623 2.407l-1.45 3.583a1.617 1.617 146.022 0 1-1.5 1.01H2.8A1.8 1.8 45 0 1 1 12.2V4.266A2.266 2.266 135 0 1 3.266 2H6l2 2h3a2 2 45 0 1 2 2v1" class="foreground-stroke transparent-fill" style="fill:none;stroke:#241f31;stroke-width:2;stroke-linecap:round;stroke-linejoin:round;stroke-dasharray:none;paint-order:markers stroke fill"/></svg>
